packages/sources/icons/src/vitamix/scales-line.svg

<svg width="16" height="16" viewBox="0 0 16 16" xmlns="http://www.w3.org/2000/svg"><path d="M8.66662 1.33331V2.18531L12 3.29731L14.4213 2.49065L14.8433 3.75465L12.822 4.42865L14.886 10.1033C14.158 10.8613 13.1333 11.3333 12 11.3333C10.866 11.3333 9.84195 10.8613 9.11395 10.1033L11.1766 4.42865L8.66662 3.59131V12.6666H11.3333V14H4.66662V12.6666H7.33329V3.59131L4.82129 4.42865L6.88529 10.1033C6.15795 10.8613 5.13329 11.3333 3.99995 11.3333C2.86595 11.3333 1.84195 10.8613 1.11395 10.1033L3.17662 4.42865L1.15662 3.75531L1.57862 2.48998L3.99995 3.29665L7.33329 2.18531V1.33331H8.66662ZM12 6.06865L10.6946 9.65931C11.086 9.87998 11.5326 9.99998 12 9.99998C12.4666 9.99998 12.9133 9.87998 13.3053 9.65998L12 6.06798V6.06865ZM3.99995 6.06865L2.69462 9.65931C3.08595 9.87998 3.53262 9.99998 3.99995 9.99998C4.46662 9.99998 4.91329 9.87998 5.30529 9.65998L3.99995 6.06798V6.06865Z"/></svg>

<svg width="16" height="16" xmlns="http://www.w3.org/2000/svg"><path d="M8.667 1.333v.852L12 3.297l2.421-.806.422 1.264-2.021.674 2.064 5.674A3.99 3.99 0 0 1 12 11.333a3.99 3.99 0 0 1-2.886-1.23l2.063-5.674-2.51-.838v9.076h2.666V14H4.667v-1.333h2.666V3.59l-2.512.838 2.064 5.674A3.988 3.988 0 0 1 4 11.333a3.99 3.99 0 0 1-2.886-1.23L3.177 4.43l-2.02-.674.422-1.265L4 3.297l3.333-1.112v-.852h1.334ZM12 6.07l-1.305 3.59c.391.221.838.341 1.305.341.467 0 .913-.12 1.305-.34L12 6.068Zm-8 0-1.305 3.59C3.086 9.88 3.533 10 4 10c.467 0 .913-.12 1.305-.34L4 6.068Z"/></svg>
